Source Code/mun/assets/flags/MKD.svg

<svg viewBox="0 0 40.5 40.5" xmlns="http://www.w3.org/2000/svg"><path d="m40.5 20.25a19.08 19.08 0 0 1 -.11 2 19.45 19.45 0 0 1 -2 7 18.57 18.57 0 0 1 -1.77 2.9 20.22 20.22 0 0 1 -12.36 7.9 20.4 20.4 0 0 1 -7.94 0 20.27 20.27 0 0 1 -12.37-7.9 19.31 19.31 0 0 1 -1.76-2.9 19.45 19.45 0 0 1 -2-7 18.6 18.6 0 0 1 0-4 19.45 19.45 0 0 1 2-7 19.31 19.31 0 0 1 1.76-2.9 20.27 20.27 0 0 1 12.33-7.96 20.4 20.4 0 0 1 7.94 0 20.22 20.22 0 0 1 12.36 7.9 18.57 18.57 0 0 1 1.77 2.9 19.45 19.45 0 0 1 2 7 19.08 19.08 0 0 1 .15 2.06z" fill="#d20000"/><g fill="#ffe600"><circle cx="20.25" cy="20.25" r="5.77"/><path d="m24.22.39-2.98 12.61a7 7 0 0 0 -2 0l-2.96-12.61a20.4 20.4 0 0 1 7.94 0z"/><path d="m24.22 40.11a20.4 20.4 0 0 1 -7.94 0l3-12.65a7 7 0 0 0 2 0z"/><path d="m40.5 20.25a19.08 19.08 0 0 1 -.11 2l-12.9-1.25c0-.25 0-.48 0-.72s0-.47 0-.72l12.9-1.3a19.08 19.08 0 0 1 .11 1.99z"/><path d="m38.35 11.19-11.59 5.81a7.86 7.86 0 0 0 -.88-1.33l10.7-7.36a18.57 18.57 0 0 1 1.77 2.88z"/><path d="m38.35 29.31a18.57 18.57 0 0 1 -1.77 2.9l-10.7-7.36a7.86 7.86 0 0 0 .88-1.33z"/><path d="m13 20.25v.72l-12.89 1.3a18.6 18.6 0 0 1 0-4l12.89 1.26z"/><path d="m14.62 15.65a7.86 7.86 0 0 0 -.88 1.35l-11.59-5.81a19.31 19.31 0 0 1 1.76-2.9z"/><path d="m14.62 24.85-10.71 7.36a19.31 19.31 0 0 1 -1.76-2.9l11.59-5.79a7.86 7.86 0 0 0 .88 1.33z"/></g></svg>

<svg xmlns="http://www.w3.org/2000/svg" viewBox="0 0 40.5 40.5"><defs><style>.cls-1{fill:#d20000;}.cls-2{fill:#ffe600;}</style></defs><g id="Ebene_2" data-name="Ebene 2"><g id="Ńëîé_1" data-name="Ńëîé 1"><path class="cls-1" d="M40.5,20.25a19.08,19.08,0,0,1-.11,2,19.45,19.45,0,0,1-2,7,18.57,18.57,0,0,1-1.77,2.9,20.22,20.22,0,0,1-12.36,7.9,20.4,20.4,0,0,1-7.94,0,20.27,20.27,0,0,1-12.37-7.9,19.31,19.31,0,0,1-1.76-2.9,19.45,19.45,0,0,1-2-7,18.6,18.6,0,0,1,0-4,19.45,19.45,0,0,1,2-7,19.31,19.31,0,0,1,1.76-2.9A20.27,20.27,0,0,1,16.28.39a20.4,20.4,0,0,1,7.94,0,20.22,20.22,0,0,1,12.36,7.9,18.57,18.57,0,0,1,1.77,2.9,19.45,19.45,0,0,1,2,7A19.08,19.08,0,0,1,40.5,20.25Z"/><circle class="cls-2" cx="20.25" cy="20.25" r="5.77"/><path class="cls-2" d="M24.22.39,21.24,13a7,7,0,0,0-2,0L16.28.39a20.4,20.4,0,0,1,7.94,0Z"/><path class="cls-2" d="M24.22,40.11a20.4,20.4,0,0,1-7.94,0l3-12.65a7,7,0,0,0,2,0Z"/><path class="cls-2" d="M40.5,20.25a19.08,19.08,0,0,1-.11,2L27.49,21c0-.25,0-.48,0-.72s0-.47,0-.72l12.9-1.3A19.08,19.08,0,0,1,40.5,20.25Z"/><path class="cls-2" d="M38.35,11.19,26.76,17a7.86,7.86,0,0,0-.88-1.33l10.7-7.36A18.57,18.57,0,0,1,38.35,11.19Z"/><path class="cls-2" d="M38.35,29.31a18.57,18.57,0,0,1-1.77,2.9l-10.7-7.36a7.86,7.86,0,0,0,.88-1.33Z"/><path class="cls-2" d="M13,20.25c0,.24,0,.47,0,.72L.11,22.27a18.6,18.6,0,0,1,0-4L13,19.53C13,19.78,13,20,13,20.25Z"/><path class="cls-2" d="M14.62,15.65A7.86,7.86,0,0,0,13.74,17L2.15,11.19a19.31,19.31,0,0,1,1.76-2.9Z"/><path class="cls-2" d="M14.62,24.85,3.91,32.21a19.31,19.31,0,0,1-1.76-2.9l11.59-5.79A7.86,7.86,0,0,0,14.62,24.85Z"/></g></g></svg>
